X: 62
T:Morning Star, The
M:C|
L:1/8
R:Reel
K:G
A[|B2BA BGEF|G2Bd efgd|B2BA BGED|GBAF ~G3A|!
B2BA BGEF|G2Bd efgd|B2BA BGED|GBAF ~G3A|]!
Bdef g2eg|fedf eBBA|Bdef g2eg|fedf ~e3d|!
Bdef gfeg|fedf eBBA|Bdef g2bg|faaf gfed|]!
